X:5169
T:Polka efter John-Erik Matsson
O:england
R:Polka
M:2/4
L:1/8
K:G
"G"B/B/B/B/ Bc | "G"dB dB |\
"C"e/e/e/e/ ed | "C"c/c/c/c/ cB |\
"D7"A/A/A/A/ AB | "D7"cA cA |\
"D7" f/f/f/f/ fe | "D7"d/d/d/d/ dc |\
"G"B2 z G | "G"B/B/B/B/ Bc|\
"G"dBdB | "C"e/e/e/e/ ed |\
"C"c/c/c/c/ cg | "D7"f/f/f/f/ f/f/e/e/ |\
"D7"d/d/d/d/ d/d/c/c/ | "G"B/B/d "D7"Ad |\
"G"G2 z D::
"G"Gg "D7"f>e | "C"ed "G"B2 |\
"G"dc/B/ "D7"cA | "C"ed "G"B2 |\
"G"Gg "D7"f>e | "C"ed "G"B2 |\
"G"dc/B/ "D7"cA/F/ | "G"AG G2::
"G"D>G Bd | "G"gBd2 |\
"D7"cA c2 | "G"BG B2 |\
"G"dG Bd  | "G"gB d2|\
"G"ed/B/ "D7"cA/F/ | "G"AG G2:|


